X:1
T:The Road To Ballymac x2
L:1/8
Q:1/4=180
M:4/4
K:D
|:"G"!mf! D2 z2 G2 z2 | .G3 (B"C" AG) E z |"G" G2 z2"C" z4 |"G" z8"D7" |"G"!mf! D2 z2 G2 z2 |"G" .G3 (B"C" AG) E z |"C/D"cc z2 z2 cc |1"D" z4 D4 :|2"D" z4"G" D4 |:"G" d2 .d2"Em" z e3 |"C" .e2 z f-"D7" f4 |"G" d2 .d2"Am" z e3 |"C" .g2 z a-"D7" a4 |"G"d2 .d2"Em" z e3 |"C" .e2 z f-"D7" f4 |"G" .g2 z g-"C" g4 |1"D7" .f2 z2"G" d4 :|2"D7" .f2 z2"G" d4 |:"D" z2 f2- f2 .f2 |"A"z2 e2- e2 .e2 |"Bm" z2 d2- d2 .d2 |"F#m" z2 (c2 c2) .c2 |"G" z2 (B2 B2) .B2 |"D" z2 A2- A2 .A2 |"G" z4 D2 D2 |1"A7"A2 E2"A" E4 :|2"A" A2 E2"D" F4 |:"D" z2 d2 z2 d2 |"A" z2 c2 z2 c2 |"Bm" z2 B2 z2 B2 |"F#m" z2 A2 z2 A2 |"G" z2 B2 z2 B2 |"D"z2 A2 z2 A2 |"G" z2 B2 z2 B2 |1"A7" z2 c2"A" z2 c2 :|2"A" z2 c2"D" d4 ||"A" z2 .c2 z4 |"D" !fermata!d8 |
